X: 39202
T: Swiss Piper, The
R: jig
M: 6/8
K: Dmixolydian
d|:cAG A2d|cAG FGA|cAG A2d|cAG fed|
cAG A2d|cAG FGA|cAd cAG|EFA dAd:|
ece gfe|fdd Add|ece gfe|fag fed|
ece gfe|fdd Add|cAd cAG|EFA dAd:|

